X: 1
T: Reel de Mattawa
C: Richard For\^et
R: reel
Z: 2011 John Chambers <jc:trillian.mit.edu>
B: The Portland Collection, v.1 p.132
M: C|
L: 1/8
K: Edor
ef \
| "Em"gefd ecdB | "D"ABAF DEFD | "Em"EFGA B2ef | "C"gfed "D"Adef |
| "Em"gefd ecdB | "D"ABAF DEFD | "Em"EFGA B2AG | "D"FAGF "Em"E2 :|
|: zA \
| "Em"B2eB gBeB | ABeB gBeB | "D"d2fd gdfd | Adfd gdfd |
| "Em"B2eB gBeB | ABeB "(C)"gBeB | "D"f3g fedc | "Bm"Bcd2 "Em"e2 :|

%%sep 1 1 500

